; generated by PrusaSlicer 2.9.2 on 2025-04-24 at 23:22:37 UTC


;
;

;
;

;
;

;
;

;
;
; 

; external perimeters extrusion width = 0.45mm
; perimeters extrusion width = 0.45mm
; infill extrusion width = 0.45mm
; solid infill extrusion width = 0.45mm
; top infill extrusion width = 0.42mm
; first layer extrusion width = 0.50mm

M73 P0 R86
M73 Q0 S91
M201 X4000 Y4000 Z200 E2500 ; sets maximum accelerations, mm/sec^2
M203 X300 Y300 Z12 E120 ; sets maximum feedrates, mm / sec
M204 P4000 R1250 T4000 ; sets acceleration (P, T) and retract acceleration (R), mm/sec^2
M205 X8.00 Y8.00 Z2.00 E5.00 ; sets the jerk limits, mm/sec
M205 S0 T0 ; sets the minimum extruding and travel feed rate, mm/sec

M486 S0
M486 ACornerV3-Right Front Corner.stl
M486 S-1

;TYPE:Custom
M17 ; enable steppers
M862.1 P0.4 A0 F0 ; nozzle check
M862.3 P "MK3.5" ; printer model check
M862.5 P2 ; g-code level check
M862.6 P"Input shaper" ; FW feature check
M115 U6.2.3+8862

M555 X39.1626 Y19.141 W163.3 H171.8

G90 ; use absolute coordinates
M83 ; extruder relative mode

M140 S60 ; set bed temp
M104 T0 S170 ; set extruder temp for bed leveling
M109 T0 R170 ; wait for temp
M190 S60 ; wait for bed temp

G28 ; home all

G29 P1 ; invalidate mbl & probe print area
G29 P1 X23 Y5 W80 H20 C ; probe near purge place
G29 P3.2 ; interpolate mbl probes
G29 P3.13 ; extrapolate mbl outside probe area
G29 A ; activate mbl

; prepare for purge
M104 S230
G0 X0 Y-4 Z15 F4800 ; move away and ready for the purge
M109 S230

; Extrude purge line

G92 E0 ; reset extruder position
G0 E7 X15 Z0.2 F500 ; purge
G0 X25 E4 F500 ; purge
G0 X35 E4 F650 ; purge
G0 X45 E4 F800 ; purge
G0 X48 Z0.05 F8000 ; wipe, move close to the bed
G0 X51 Z0.2 F8000 ; wipe, move quickly away from the bed

G92 E0
M221 S100 ; reset flow to 100%
G21 ; set units to millimeters
G90 ; use absolute coordinates
M83 ; use relative distances for extrusion





M572 S0.035 ; Filament gcode
M107
;LAYER_CHANGE
;Z:0.2
;HEIGHT:0.2
G1 E-.8 F2100
G1 Z.4 F720
G1 X42.191 Y82.304 F18000
G1 Z.2 F720
G1 E.8 F2100
M204 P500
;TYPE:Skirt/Brim
;WIDTH:0.5
G1 F1800
G3 X43.928 Y81.799 I2.175 J4.243 E.06917
G1 X75.805 Y81.799 E1.21153
G1 X93.32 Y64.284 E.94141
G1 X93.32 Y27.907 E1.38256
G3 X97.405 Y23.802 I4.474 J.367 E.23923
G1 X197.742 Y23.803 E3.81344
G3 X201.805 Y27.906 I-.412 J4.472 E.23837
G1 X201.805 Y66.208 E1.45572
G3 X201.146 Y68.294 I-5.555 J-.608 E.08368
G1 X200.652 Y68.951 E.03124
G1 X80.062 Y189.466 E6.47958
G3 X78.998 Y190.023 I-3.275 J-4.959 E.04572
G1 X77.726 Y190.283 E.04934
G1 X43.928 Y190.283 E1.28454
G3 X39.82 Y186.173 I.368 J-4.476 E.24019
G1 X39.82 Y85.907 E3.81074
G3 X40.59 Y83.707 I4.812 J.449 E.08947
M73 P0 R85
G1 X41.634 Y82.639 E.05676
G3 X42.138 Y82.331 I2.732 J3.908 E.02246
M204 P2500
M204 T4000
G1 X42.375 Y82.717 F18000
M204 P500
G1 F1800
G3 X42.419 Y82.69 I2.836 J4.611 E.00196
G3 X43.951 Y82.256 I2.079 J4.417 E.06079
G1 X75.995 Y82.256 E1.21787
G1 X93.777 Y64.473 E.95579
G1 X93.777 Y27.929 E1.3889
G3 X97.426 Y24.259 I4.012 J.34 E.21363
G1 X197.72 Y24.26 E3.81181
G3 X201.348 Y27.929 I-.385 J4.009 E.21284
G1 X201.348 Y66.184 E1.45393
G3 X200.767 Y68.038 I-4.992 J-.546 E.07431
G1 X200.317 Y68.64 E.02857
G1 X79.801 Y189.09 E6.47585
G3 X77.703 Y189.826 I-2.472 J-3.684 E.08541
G1 X43.951 Y189.826 E1.28279
G3 X40.277 Y186.153 I.341 J-4.014 E.21458
G1 X40.277 Y85.929 E3.80915
G3 X40.971 Y83.962 I4.292 J.407 E.08007
G3 X42.324 Y82.748 I4.239 J3.366 E.06942
M204 P2500
G1 X42.565 Y83.134 F18000
M204 P500
G1 F1800
G3 X42.616 Y83.103 I2.567 J4.1 E.00227
G3 X43.973 Y82.713 I1.841 J3.852 E.05391
G1 X76.184 Y82.713 E1.22422
G1 X94.234 Y64.663 E.97017
G1 X94.234 Y27.952 E1.39525
G3 X97.447 Y24.716 I3.551 J.312 E.18806
G1 X197.698 Y24.717 E3.81017
G3 X200.891 Y27.952 I-.359 J3.547 E.18732
M73 P1 R85
M73 Q0 S90
G1 X200.891 Y66.161 E1.45218
G3 X199.983 Y68.328 I-3.817 J-.326 E.09076
G1 X79.54 Y188.713 E6.47214
G3 X77.68 Y189.369 I-2.189 J-3.242 E.07578
M73 Q1 S90
G1 X43.973 Y189.369 E1.28108
G3 X40.734 Y186.131 I.313 J-3.552 E.18902
G1 X40.734 Y85.951 E3.80747
G3 X41.35 Y84.218 I3.786 J.369 E.0706
G3 X42.515 Y83.166 I3.782 J3.016 E.05992
M204 P2500
G1 X42.747 Y83.566 F18000
M204 P500
G1 F1800
G3 X43.291 Y83.31 I1.713 J2.942 E.02288
G1 X43.995 Y83.17 E.02728
G1 X76.373 Y83.17 E1.23057
G1 X94.692 Y64.852 E.9846
G1 X94.692 Y27.974 E1.4016
G3 X97.467 Y25.173 I3.089 J.286 E.16238
G1 X197.674 Y25.174 E3.8085
G3 X200.434 Y27.974 I-.33 J3.085 E.16183
G1 X200.434 Y66.137 E1.45044
G3 X199.648 Y68.016 I-3.319 J-.284 E.07867
G1 X79.278 Y188.338 E6.46848
G3 X77.657 Y188.912 I-1.91 J-2.816 E.06607
G1 X43.995 Y188.912 E1.27937
G3 X41.192 Y186.109 I.286 J-3.089 E.16343
G1 X41.192 Y85.974 E3.80576
G3 X41.73 Y84.474 I3.268 J.327 E.06118
G3 X42.696 Y83.596 I2.73 J2.034 E.04992
M204 P2500
G1 X42.927 Y83.985 F18000
M204 P500
G1 F1800
G3 X44.018 Y83.627 I1.348 J2.269 E.04399
G1 X76.563 Y83.627 E1.23692
G1 X95.149 Y65.041 E.99898
G1 X95.149 Y27.995 E1.40798
G3 X97.98 Y25.627 I2.62 J.256 E.15544
M73 P1 R84
G1 X197.607 Y25.627 E3.78646
G1 X198.178 Y25.741 E.02213
G3 X199.977 Y27.996 I-.856 J2.527 E.11583
G1 X199.977 Y66.114 E1.44873
G3 X199.312 Y67.706 I-2.821 J-.243 E.06663
G1 X79.016 Y187.962 E6.46472
G3 X77.634 Y188.455 I-1.627 J-2.377 E.05639
G1 X44.018 Y188.455 E1.27762
G3 X41.649 Y186.086 I.257 J-2.627 E.13795
G1 X41.649 Y85.996 E3.80405
G3 X42.876 Y84.016 I2.626 J.258 E.09169
M204 P2500
G1 X43.117 Y84.403 F18000
M204 P500
G1 F1800
G3 X44.04 Y84.084 I1.155 J1.847 E.03743
G1 X76.752 Y84.084 E1.24326
G1 X95.606 Y65.23 E1.01338
G1 X95.606 Y28.019 E1.41425
G3 X97.544 Y26.084 I2.167 J.233 E.11254
M73 P2 R84
G1 X197.585 Y26.084 E3.80219
G3 X199.519 Y28.019 I-.232 J2.166 E.11242
G1 X199.519 Y66.09 E1.44694
G3 X198.976 Y67.395 I-2.323 J-.202 E.05458
G1 X78.753 Y187.588 E6.46107
G3 X77.612 Y187.998 I-1.347 J-1.956 E.0466
M73 Q2 S89
G1 X44.04 Y187.998 E1.27595
G3 X42.106 Y186.063 I.232 J-2.166 E.11242
G1 X42.106 Y86.019 E3.8023
G3 X43.067 Y84.436 I2.166 J.231 E.0727
M204 P2500
G1 X43.319 Y84.815 F18000
M204 P500
G1 F1800
G3 X44.063 Y84.541 I.95 J1.432 E.03041
G1 X76.941 Y84.541 E1.24957
G1 X96.063 Y65.42 E1.02776
G1 X96.063 Y28.041 E1.42064
G3 X97.979 Y26.541 I1.708 J.209 E.10272
G1 X197.562 Y26.541 E3.78478
G3 X199.062 Y28.041 I-.206 J1.706 E.08689
G1 X199.062 Y66.068 E1.44527
G3 X198.641 Y67.084 I-1.839 J-.168 E.04244
G1 X78.489 Y187.213 E6.45744
G3 X77.589 Y187.541 I-1.063 J-1.522 E.03682
G1 X44.063 Y187.541 E1.2742
G3 X42.563 Y186.041 I.206 J-1.706 E.08689
G1 X42.563 Y86.041 E3.80063
G3 X43.269 Y84.849 I1.706 J.206 E.05419
M204 P2500
G1 X43.535 Y85.22 F18000
M204 P500
G1 F1800
G3 X44.085 Y84.998 I.734 J1.027 E.02275
G1 X77.131 Y84.998 E1.25596
G1 X96.52 Y65.609 E1.04214
G1 X96.52 Y28.064 E1.42695
G3 X97.582 Y26.998 I1.249 J.183 E.06126
G1 X197.54 Y26.998 E3.79904
G3 X198.605 Y28.064 I-.184 J1.249 E.06137
M73 P2 R83
G1 X198.605 Y66.045 E1.44352
G3 X198.304 Y66.774 I-1.343 J-.128 E.03042
G1 X78.223 Y186.842 E6.45389
G3 X77.567 Y187.084 I-.783 J-1.111 E.02688
G1 X44.085 Y187.084 E1.27253
G3 X43.02 Y186.018 I.184 J-1.249 E.06137
G1 X43.02 Y86.064 E3.79888
G3 X43.487 Y85.256 I1.249 J.183 E.03633
M73 P3 R83
M204 P2500
G1 X43.77 Y85.614 F18000
M204 P500
G1 F1800
G3 X44.108 Y85.455 I.507 J.641 E.01432
G1 X77.32 Y85.455 E1.26227
G1 X96.977 Y65.798 E1.05655
G1 X96.977 Y28.086 E1.43329
G3 X97.979 Y27.455 I.813 J.181 E.05005
G1 X197.517 Y27.455 E3.78307
G3 X198.148 Y28.086 I-.168 J.8 E.03588
G1 X198.148 Y66.023 E1.44185
G3 X197.966 Y66.466 I-.85 J-.091 E.01845
G1 X77.957 Y186.469 E6.45021
G1 X77.545 Y186.627 E.01677
M73 Q3 S89
G1 X44.108 Y186.627 E1.27082
G3 X43.477 Y185.996 I.169 J-.8 E.03588
M73 Q3 S88
G1 X43.477 Y86.086 E3.79721
G3 X43.724 Y85.653 I.8 J.169 E.01925
M204 P2500
G1 X44.038 Y85.994 F18000
M204 P500
G1 F1800
G3 X44.176 Y85.913 I.257 J.279 E.00613
G1 X77.509 Y85.913 E1.26686
G1 X97.434 Y65.988 E1.07095
G1 X97.434 Y28.154 E1.43793
G3 X97.676 Y27.913 I.361 J.119 E.01346
G1 X197.449 Y27.913 E3.79201
G3 X197.691 Y28.154 I-.119 J.36 E.01346
G1 X197.691 Y66.001 E1.43843
G1 X197.625 Y66.161 E.00658
G1 X77.682 Y186.103 E6.4468
G1 X77.522 Y186.17 E.00659
G1 X44.176 Y186.17 E1.26736
G3 X43.934 Y185.928 I.119 J-.361 E.01349
G1 X43.934 Y86.154 E3.79204
G3 X43.997 Y86.038 I.361 J.119 E.00504
M204 P2500
;WIPE_START
G1 F14400
G1 X44.038 Y85.994 E-.00833
G3 X44.176 Y85.913 I.257 J.28 E-.02234
G1 X49.729 Y85.913 E-.76933
;WIPE_END
G1 Z.4 F720
M486 S0
G1 X126.248 Y105.94 F18000
G1 Z.2 F720
G1 E.8 F2100
M204 P500
;TYPE:Perimeter
;WIDTH:0.499999
G1 F1800
G3 X127.494 Y106.12 I-.729 J9.469 E.04788
G3 X129.942 Y107.069 I-2.178 J9.244 E.10011
G3 X132 Y108.698 I-4.807 J8.191 E.10007
G3 X133.487 Y110.861 I-7.007 J6.41 E.10008
G3 X134.271 Y113.366 I-8.585 J4.06 E.10008
G3 X134.281 Y115.991 I-9.401 J1.349 E.10009
G3 X133.517 Y118.503 I-9.381 J-1.482 E.10011
G3 X132.047 Y120.677 I-8.527 J-4.181 E.10006
G3 X130.001 Y122.322 I-6.916 J-6.509 E.1001
G3 X127.561 Y123.291 I-4.691 J-8.258 E.1001
G3 X124.944 Y123.497 I-2.048 J-9.275 E.10009
G3 X122.383 Y122.923 I.777 J-9.466 E.10007
G3 X120.104 Y121.619 I3.532 J-8.816 E.10011
G3 X118.311 Y119.702 I5.974 J-7.383 E.10008
G3 X117.163 Y117.341 I7.885 J-5.295 E.1001
G3 X116.762 Y114.747 I9.095 J-2.735 E.10008
G3 X117.143 Y112.15 I9.497 J.067 E.10008
G3 X118.273 Y109.78 I9.055 J2.863 E.10011
G3 X120.051 Y107.849 I7.809 J5.405 E.10008
G3 X122.319 Y106.528 I5.869 J7.467 E.10007
G3 X124.876 Y105.934 I3.407 J8.865 E.10009
G3 X126.188 Y105.935 I.643 J9.475 E.0499
M204 P2500
G1 X126.203 Y106.393 F18000
M204 P500
;TYPE:External perimeter
G1 F1800
G3 X128.217 Y106.794 I-.678 J8.669 E.07823
G3 X131.084 Y108.445 I-2.824 J8.223 E.12651
G3 X133.086 Y111.08 I-5.796 J6.48 E.12654
G3 X133.907 Y114.285 I-7.858 J3.72 E.12651
G3 X133.418 Y117.558 I-8.687 J.376 E.12655
G3 X131.697 Y120.384 I-8.15 J-3.028 E.12653
G3 X129.013 Y122.319 I-6.335 J-5.957 E.12653
G3 X125.788 Y123.06 I-3.524 J-7.949 E.12654
G3 X122.528 Y122.489 I-.159 J-8.694 E.12656
G3 X119.746 Y120.698 I3.231 J-8.072 E.12652
G3 X117.878 Y117.966 I6.112 J-6.184 E.12656
G3 X117.218 Y114.724 I8.035 J-3.324 E.12651
G3 X117.586 Y112.262 I9.005 J.086 E.09491
G3 X119.164 Y109.354 I8.291 J2.618 E.12652
G3 X121.749 Y107.288 I6.624 J5.633 E.12654
G3 X124.933 Y106.387 I3.915 J7.763 E.12654
G3 X126.143 Y106.389 I.592 J8.675 E.04602
M204 P2500
;WIPE_START
G1 F14400
G1 X126.203 Y106.393 E-.00833
G3 X128.217 Y106.794 I-.679 J8.668 E-.28517
G3 X131.084 Y108.445 I-2.826 J8.223 E-.46116
G3 X131.324 Y108.668 I-5.795 J6.482 E-.04534
;WIPE_END
G1 Z.4 F720
G1 X96.507 Y90.216 F18000
G1 Z.2 F720
G1 E.8 F2100
M204 P500
;TYPE:Perimeter
G1 F1800
G3 X97.018 Y89.065 I8.919 J3.267 E.0479
G3 X98.595 Y86.967 I8.309 J4.601 E.10007
G3 X100.72 Y85.426 I6.583 J6.845 E.10008
G3 X103.205 Y84.58 I4.273 J8.482 E.10009
G3 X105.829 Y84.505 I1.583 J9.365 E.10009
G3 X108.359 Y85.206 I-1.247 J9.415 E.1001
G3 X110.57 Y86.621 I-3.967 J8.629 E.10009
G3 X112.265 Y88.626 I-6.335 J7.077 E.1001
G3 X113.294 Y91.041 I-8.139 J4.894 E.10009
G3 X113.565 Y93.652 I-9.22 J2.278 E.10009
G3 X113.055 Y96.227 I-9.482 J-.541 E.10009
G3 X111.809 Y98.537 I-8.901 J-3.312 E.10007
G3 X110.84 Y99.613 I-7.37 J-5.659 E.05509
G3 X109.201 Y100.856 I-6.31 J-6.619 E.07835
G3 X106.761 Y101.825 I-4.69 J-8.258 E.1001
G3 X104.144 Y102.031 I-2.048 J-9.274 E.10009
G3 X101.583 Y101.457 I.777 J-9.466 E.10007
G3 X99.304 Y100.153 I3.532 J-8.816 E.10011
G3 X97.511 Y98.236 I5.974 J-7.383 E.10008
G3 X96.343 Y95.81 I7.85 J-5.274 E.10268
G3 X95.979 Y93.621 I8.539 J-2.546 E.08456
G1 X95.962 Y93.213 E.01552
G3 X96.13 Y91.535 I10.696 J.223 E.06416
G3 X96.487 Y90.273 I9.296 J1.948 E.04989
M204 P2500
G1 X96.929 Y90.382 F18000
M204 P500
;TYPE:External perimeter
G1 F1800
G3 X98.365 Y87.888 I8.148 J3.032 E.10988
G3 X100.949 Y85.822 I6.623 J5.634 E.12651
G3 X104.133 Y84.921 I3.915 J7.763 E.12654
G3 X107.417 Y85.328 I.592 J8.675 E.12654
G3 X110.285 Y86.979 I-2.824 J8.224 E.12654
G3 X112.286 Y89.614 I-5.797 J6.481 E.12652
G3 X113.107 Y92.819 I-7.858 J3.72 E.12651
G3 X112.618 Y96.092 I-8.687 J.376 E.12655
G3 X110.897 Y98.918 I-8.15 J-3.028 E.12653
G3 X109.633 Y100.033 I-8.725 J-8.613 E.06411
G3 X107.438 Y101.158 I-5.166 J-7.375 E.09404
G3 X104.156 Y101.574 I-2.714 J-8.26 E.12651
G3 X100.969 Y100.682 I.707 J-8.666 E.12655
G3 X98.379 Y98.623 I4.018 J-7.711 E.12652
G3 X96.786 Y95.697 I6.694 J-5.542 E.12741
G3 X96.461 Y94.089 I9.738 J-2.805 E.06242
G3 X96.786 Y90.797 I8.657 J-.808 E.1265
G3 X96.908 Y90.438 I8.291 J2.618 E.01441
M204 P2500
;WIPE_START
G1 F14400
G1 X96.929 Y90.382 E-.00829
G3 X98.365 Y87.888 I8.149 J3.032 E-.40055
G3 X100.508 Y86.069 I6.623 J5.634 E-.39116
;WIPE_END
G1 Z.4 F720
G1 X98.412 Y66.39 F18000
G1 Z.2 F720
G1 E.8 F2100
M204 P500
;TYPE:Perimeter
G1 F1800
G1 X98.47 Y66.133 E.01001
G1 X98.47 Y28.948 E1.41326
G1 X196.655 Y28.948 E3.73165
G1 X196.655 Y54.911 E.98676
M73 P3 R82
G1 X196.655 Y65.665 E.40872
G1 X77.187 Y185.134 E6.42131
M73 P4 R82
G1 X44.97 Y185.134 E1.22445
G1 X44.97 Y86.948 E3.73168
G1 X77.448 Y86.948 E1.23437
G1 X77.869 Y86.913 E.01606
G1 X78.139 Y86.747 E.01205
G1 X98.269 Y66.618 E1.08194
G1 X98.39 Y66.445 E.00802
M204 P2500
G1 X97.98 Y66.214 F18000
M204 P500
;TYPE:External perimeter
G1 F1800
M73 Q4 S88
G1 X98.013 Y66.136 E.00322
G1 X98.013 Y28.491 E1.43075
G1 X197.113 Y28.491 E3.76642
G1 X197.113 Y54.911 E1.00413
G1 X197.113 Y65.855 E.41594
G1 X77.376 Y185.591 E6.43572
G1 X44.513 Y185.591 E1.249
M73 Q4 S87
G1 X44.513 Y86.491 E3.76642
G1 X77.654 Y86.491 E1.25957
G1 X77.816 Y86.424 E.00666
G1 X97.946 Y66.294 E1.08197
G1 X97.956 Y66.269 E.00102
M204 P2500
;WIPE_START
G1 F14400
G1 X97.98 Y66.214 E-.00831
G1 X98.013 Y66.136 E-.01173
G1 X98.013 Y60.506 E-.77996
;WIPE_END
G1 Z.4 F720
G1 X196.473 Y30.056 F18000
G1 Z.2 F720
G1 E.8 F2100
M204 P500
;TYPE:Solid infill
;WIDTH:0.500279
G1 F6000
G1 X195.754 Y29.337 E.03867
G1 X195.107 Y29.337 E.02461
G1 X196.267 Y30.497 E.06239
G1 X196.267 Y31.143 E.02457
G1 X194.46 Y29.337 E.09716
G1 X193.813 Y29.337 E.02461
G1 X196.267 Y31.79 E.13195
G1 X196.267 Y32.437 E.02461
G1 X193.167 Y29.337 E.16672
G1 X192.52 Y29.337 E.02461
G1 X196.267 Y33.084 E.20152
G1 X196.267 Y33.731 E.02461
G1 X191.873 Y29.337 E.23632
G1 X191.226 Y29.337 E.02461
G1 X196.267 Y34.377 E.27109
G1 X196.267 Y35.024 E.02461
G1 X190.579 Y29.337 E.30588
G1 X189.933 Y29.337 E.02457
G1 X196.267 Y35.671 E.34065
G1 X196.267 Y36.318 E.02461
G1 X189.286 Y29.337 E.37545
G1 X188.639 Y29.337 E.02461
G1 X196.267 Y36.965 E.41025
G1 X196.267 Y37.611 E.02457
G1 X187.992 Y29.337 E.44502
G1 X187.345 Y29.337 E.02461
G1 X196.267 Y38.258 E.47982
G1 X196.267 Y38.905 E.02461
G1 X186.699 Y29.337 E.51459
G1 X186.052 Y29.337 E.02461
G1 X196.267 Y39.552 E.54938
G1 X196.267 Y40.199 E.02461
G1 X185.405 Y29.337 E.58418
G1 X184.758 Y29.337 E.02461
G1 X196.267 Y40.846 E.61898
G1 X196.267 Y41.492 E.02457
G1 X184.111 Y29.337 E.65375
G1 X183.465 Y29.337 E.02457
G1 X196.267 Y42.139 E.68852
G1 X196.267 Y42.786 E.02461
G1 X182.818 Y29.337 E.72331
G1 X182.171 Y29.337 E.02461
G1 X196.267 Y43.433 E.75811
G1 X196.267 Y44.08 E.02461
G1 X181.524 Y29.337 E.79291
G1 X180.877 Y29.337 E.02461
G1 X196.267 Y44.726 E.82768
G1 X196.267 Y45.373 E.02461
G1 X180.231 Y29.337 E.86245
G1 X179.584 Y29.337 E.02461
G1 X196.267 Y46.02 E.89724
G1 X196.267 Y46.667 E.02461
G1 X178.937 Y29.337 E.93204
G1 X178.29 Y29.337 E.02461
G1 X196.267 Y47.314 E.96684
G1 X196.267 Y47.96 E.02457
G1 X177.643 Y29.337 E1.00161
G1 X176.996 Y29.337 E.02461
G1 X196.267 Y48.607 E1.0364
G1 X196.267 Y49.254 E.02461
G1 X176.35 Y29.337 E1.07117
G1 X175.703 Y29.337 E.02461
G1 X196.267 Y49.901 E1.10597
G1 X196.267 Y50.548 E.02461
G1 X175.056 Y29.337 E1.14077
G1 X174.409 Y29.337 E.02461
G1 X196.267 Y51.194 E1.17554
G1 X196.267 Y51.841 E.02461
G1 X173.762 Y29.337 E1.21033
G1 X173.116 Y29.337 E.02457
G1 X196.267 Y52.488 E1.2451
G1 X196.267 Y53.135 E.02461
G1 X172.469 Y29.337 E1.2799
G1 X171.822 Y29.337 E.02461
G1 X196.267 Y53.782 E1.3147
G1 X196.267 Y54.428 E.02457
G1 X171.175 Y29.337 E1.34947
G1 X170.528 Y29.337 E.02461
G1 X196.267 Y55.075 E1.38427
G1 X196.267 Y55.722 E.02461
G1 X169.882 Y29.337 E1.41904
G1 X169.235 Y29.337 E.02461
